public/flags/CM.svg

<svg fill="none" height="53" viewBox="0 0 61 53" width="61" xmlns="http://www.w3.org/2000/svg" xmlns:xlink="http://www.w3.org/1999/xlink"><linearGradient id="a" gradientUnits="userSpaceOnUse" x1="29.0952" x2="29.0952" y1="3" y2="45.5"><stop offset="0" stop-color="#ffdc44"/><stop offset="1" stop-color="#fdd216"/></linearGradient><mask id="b" height="43" maskUnits="userSpaceOnUse" width="59" x="1" y="3"><rect fill="#fff" height="42.5" rx="4.24286" width="59" x="1" y="3"/></mask><rect fill="#fff" height="42.5" rx="4.24286" width="59" x="1" y="3"/><g mask="url(#b)"><path d="m29.0952 3h30.9048v42.5h-30.9048z" fill="url(#a)"/><g clip-rule="evenodd" fill-rule="evenodd"><path d="m1 45.5h19.6667v-42.5h-19.6667z" fill="#059170"/><path d="m20.6667 45.5h19.6667v-42.5h-19.6667z" fill="#e21a30"/><path d="m40.3333 45.5h19.6666v-42.5h-19.6666z" fill="#ffdc44"/><path d="m30.4999 27.0125-4.1285 2.968 1.5233-4.8769-4.0749-3.0425 5.07-.046 1.6101-4.8484 1.6101 4.8484 5.0699.046-4.0748 3.0425 1.5233 4.8769z" fill="#ffdc42"/></g></g></svg>

<svg width="61" height="53" viewBox="0 0 61 53" fill="none" xmlns="http://www.w3.org/2000/svg">
<rect x="1" y="3" width="59" height="42.5" rx="4.24286" fill="white"/>
<mask id="mask0" mask-type="alpha" maskUnits="userSpaceOnUse" x="1" y="3" width="59" height="43">
<rect x="1" y="3" width="59" height="42.5" rx="4.24286" fill="white"/>
</mask>
<g mask="url(#mask0)">
<rect x="29.0952" y="3" width="30.9048" height="42.5" fill="url(#paint0_linear)"/>
<path fill-rule="evenodd" clip-rule="evenodd" d="M1 45.5H20.6667V3H1V45.5Z" fill="#059170"/>
<path fill-rule="evenodd" clip-rule="evenodd" d="M20.6667 45.5H40.3334V3H20.6667V45.5Z" fill="#E21A30"/>
<path fill-rule="evenodd" clip-rule="evenodd" d="M40.3333 45.5H59.9999V3H40.3333V45.5Z" fill="#FFDC44"/>
<path fill-rule="evenodd" clip-rule="evenodd" d="M30.4999 27.0125L26.3714 29.9805L27.8947 25.1036L23.8198 22.0611L28.8898 22.0151L30.4999 17.1667L32.11 22.0151L37.1799 22.0611L33.1051 25.1036L34.6284 29.9805L30.4999 27.0125Z" fill="#FFDC42"/>
</g>
<defs>
<linearGradient id="paint0_linear" x1="29.0952" y1="3" x2="29.0952" y2="45.5" gradientUnits="userSpaceOnUse">
<stop stop-color="#FFDC44"/>
<stop offset="1" stop-color="#FDD216"/>
</linearGradient>
</defs>
</svg>
